!!!OTL: EIN DOERFCHEN NICHT WEIT ISTS VON HIER
!!!ARE: Europa, Mitteleuropa, Deutschland, Hessen, Limburg; Wetterau
!!!SCT: E1425
!!!YEM: Copyright 1995, estate of Helmut Schaffrath.
**kern
*ICvox
*Ivox
*M6/8
*k[f#]
*G:
{8d
=1
8.b
16a
8g
8g
8a
8b
=2
4.a
4r}
{8dd
=3
8.dd
16dd
8dd
8ee
8dd
8cc
=4
4.b
4.r}
=5
{4f#
8a
4cc
8ee
=6
2dd
8cc}
{8b
=7
2cc
8b
8a
=8
2b
4a}
=9
{4f#
8a
4cc
8ee
=10
2dd
8cc}
{8b
=11
2cc
8a
8dd
=12
4.b
4r}
==
!!!AGN: Staende -, Soldaten - Lied, Liebe
!!!ONB: ESAC (Essen Associative Code) Database: ERK3
!!!AMT: compound duple
!!!AIN: vox
!!!EED: Helmut Schaffrath
!!!EEV: 1.0
*-
